X:9055
T:La Ronfleuse Gobeil
M:4/4
K:D
a2fd Adfa|gfeg fedf|a2fd Adfa|1g2e2d3a:|2g2e2d3A||!A2f2fef2|B2g2gfg2|A2c2cBc2|dcde fafd|!A2f2fef2|B2g2g3a|b2a2g2c2|1e2d2d2cB:|2e2d2d4||!f2fg afdA|f2a2f2d2|g2ga bgdB|g2b2g2e2|!f2fg afdA|f2a2f2d2|gfed dcBA|AGFED4:||
